flaticon/transportation/truck-8.svg

<svg xmlns="http://www.w3.org/2000/svg" width="32" height="32" viewBox="0 0 24 24">
    <path d="M17.75 8.324219C16.4375 6.835938 14.292969 5.953125 12 5.953125 9.71875 5.953125 7.582031 6.828125 6.269531 8.300781 6.148438 8.394531 6.074219 8.542969 6.074219 8.703125L6.074219 15.273438C6.074219 15.558594 6.300781 15.785156 6.582031 15.785156L17.414062 15.785156C17.699219 15.785156 17.925781 15.558594 17.925781 15.273438L17.925781 8.703125C17.925781 8.554688 17.855469 8.417969 17.75 8.324219zM16.90625 14.765625L7.09375 14.765625 7.09375 8.914062C8.222656 7.695312 10.042969 6.972656 12 6.972656 13.957031 6.972656 15.777344 7.695312 16.90625 8.914062zM15.632812 17.859375L17.109375 17.859375 17.109375 18.882812 15.632812 18.882812zM6.890625 17.859375L8.363281 17.859375 8.363281 18.882812 6.890625 18.882812zM6.890625 17.859375"/>
    <path d="M 23.488281 8.820312 L 19.671875 8.820312 L 19.671875 6.980469 C 19.671875 6.824219 19.597656 6.6875 19.484375 6.59375 C 19.117188 6.175781 18.699219 5.796875 18.242188 5.453125 L 18.242188 0.511719 C 18.242188 0.230469 18.011719 0 17.730469 0 L 6.269531 0 C 5.988281 0 5.757812 0.230469 5.757812 0.511719 L 5.757812 5.457031 C 5.304688 5.792969 4.894531 6.164062 4.539062 6.566406 C 4.410156 6.660156 4.328125 6.808594 4.328125 6.980469 L 4.328125 8.820312 L 0.511719 8.820312 C 0.226562 8.820312 0 9.050781 0 9.332031 L 0 12.472656 C 0 13.527344 0.8125 14.382812 1.8125 14.382812 C 2.8125 14.382812 3.625 13.527344 3.625 12.472656 L 3.625 9.84375 L 4.328125 9.84375 L 4.328125 20.238281 C 4.328125 20.519531 4.558594 20.75 4.839844 20.75 L 5.691406 20.75 L 5.691406 22.164062 C 5.691406 23.175781 6.476562 24 7.4375 24 L 7.847656 24 C 8.808594 24 9.59375 23.175781 9.59375 22.164062 L 9.59375 20.75 L 14.40625 20.75 L 14.40625 22.164062 C 14.40625 23.175781 15.1875 24 16.152344 24 L 16.5625 24 C 17.523438 24 18.308594 23.175781 18.308594 22.164062 L 18.308594 20.75 L 19.160156 20.75 C 19.441406 20.75 19.671875 20.519531 19.671875 20.238281 L 19.671875 9.84375 L 20.375 9.84375 L 20.375 12.472656 C 20.375 13.527344 21.1875 14.382812 22.1875 14.382812 C 23.1875 14.382812 24 13.527344 24 12.472656 L 24 9.332031 C 24 9.050781 23.773438 8.820312 23.488281 8.820312 Z M 2.601562 12.472656 C 2.601562 12.960938 2.25 13.359375 1.8125 13.359375 C 1.375 13.359375 1.019531 12.960938 1.019531 12.472656 L 1.019531 9.84375 L 2.601562 9.84375 Z M 17.21875 1.019531 L 17.21875 4.800781 C 15.710938 3.96875 13.894531 3.503906 12 3.503906 C 10.132812 3.503906 8.300781 3.960938 6.78125 4.800781 L 6.78125 1.019531 Z M 8.570312 22.164062 C 8.570312 22.613281 8.246094 22.980469 7.847656 22.980469 L 7.4375 22.980469 C 7.039062 22.980469 6.714844 22.613281 6.714844 22.164062 L 6.714844 20.75 L 8.570312 20.75 Z M 17.285156 22.164062 C 17.285156 22.613281 16.960938 22.980469 16.5625 22.980469 L 16.152344 22.980469 C 15.753906 22.980469 15.425781 22.613281 15.425781 22.164062 L 15.425781 20.75 L 17.285156 20.75 Z M 18.648438 19.730469 L 5.351562 19.730469 L 5.351562 7.191406 C 5.777344 6.722656 6.28125 6.300781 6.855469 5.941406 C 8.300781 5.027344 10.128906 4.527344 12 4.527344 C 14.660156 4.527344 17.128906 5.519531 18.648438 7.191406 Z M 22.980469 12.472656 C 22.980469 12.960938 22.625 13.359375 22.1875 13.359375 C 21.75 13.359375 21.394531 12.960938 21.394531 12.472656 L 21.394531 9.84375 L 22.980469 9.84375 Z M 22.980469 12.472656"/>
</svg>

<svg xmlns="http://www.w3.org/2000/svg" width="32" height="32" viewBox="0 0 24 24">
    <path d="M17.75 8.324c-1.313-1.488-3.457-2.37-5.75-2.37-2.281 0-4.418.874-5.73 2.347a.51.51 0 0 0-.196.402v6.57c0 .286.227.512.508.512h10.832a.508.508 0 0 0 .512-.512v-6.57a.512.512 0 0 0-.176-.379zm-.844 6.442H7.094V8.914C8.223 7.695 10.043 6.973 12 6.973c1.957 0 3.777.722 4.906 1.941zm0 0M15.633 17.86h1.476v1.023h-1.476zm0 0M6.89 17.86h1.473v1.023H6.891zm0 0"/>
    <path d="M23.488 8.82h-3.816V6.98a.5.5 0 0 0-.188-.386 8.234 8.234 0 0 0-1.242-1.14V.511A.513.513 0 0 0 17.73 0H6.27a.513.513 0 0 0-.512.512v4.945a7.904 7.904 0 0 0-1.219 1.11.507.507 0 0 0-.21.413v1.84H.511A.511.511 0 0 0 0 9.332v3.14c0 1.055.813 1.91 1.813 1.91s1.812-.855 1.812-1.91V9.845h.703v10.394c0 .282.23.512.512.512h.851v1.414c0 1.012.786 1.836 1.747 1.836h.41c.96 0 1.746-.824 1.746-1.836V20.75h4.812v1.414c0 1.012.781 1.836 1.746 1.836h.41c.961 0 1.747-.824 1.747-1.836V20.75h.851c.281 0 .512-.23.512-.512V9.844h.703v2.629c0 1.054.813 1.91 1.813 1.91S24 13.527 24 12.473V9.332a.511.511 0 0 0-.512-.512zM2.602 12.473c0 .488-.352.886-.79.886-.437 0-.792-.398-.792-.886v-2.63h1.582zM17.219 1.02V4.8C15.71 3.97 13.895 3.505 12 3.505c-1.867 0-3.7.457-5.219 1.297V1.02zM8.57 22.164c0 .45-.324.816-.722.816h-.41c-.399 0-.723-.367-.723-.816V20.75H8.57zm8.715 0c0 .45-.324.816-.723.816h-.41c-.398 0-.726-.367-.726-.816V20.75h1.86zm1.363-2.434H5.352V7.191c.425-.468.93-.89 1.503-1.25C8.301 5.027 10.13 4.527 12 4.527c2.66 0 5.129.993 6.648 2.664zm4.332-7.257c0 .488-.355.886-.793.886-.437 0-.792-.398-.792-.886v-2.63h1.585zm0 0"/>
</svg>
